src/Svgs/bt.svg

<svg fill="none" height="201" viewBox="0 0 201 201" width="201" xmlns="http://www.w3.org/2000/svg"><g fill="#a0aec0"><path d="m100.497.504028c-55.2286 0-99.997 44.768172-99.997 99.996972 0 55.228 44.7682 100.003 99.997 100.003 55.228 0 100.003-44.775 100.003-100.003 0-55.2286-44.775-99.996972-100.003-99.996972zm-.046 12.329872c48.479 0 87.778 39.2997 87.778 87.7781 0 48.479-39.299 87.779-87.778 87.779-48.4788 0-87.7785-39.3-87.7785-87.779 0-48.4784 39.2997-87.7781 87.7785-87.7781z"/><path d="m50.6591 66.3181v68.0829h27.7029c12.5909 0 22.266-7.861 22.266-20.311 0-10.981-8.5721-15.1699-8.5721-15.1699s6.5782-4.2009 6.5782-13.5432c0-10.8516-8.5673-19.0588-21.2034-19.0588zm15.3205 13.3071h8.1849c5.8174 0 8.3555 2.9902 8.3555 6.683 0 4.0091-2.8739 6.5388-7.9685 6.5388h-8.5719zm0 26.8638h8.1849c5.8174 0 8.3555 2.99 8.3555 6.683 0 4.009-2.8739 6.538-7.9685 6.538h-8.5719z"/><path d="m121.175 134.189v-52.2579h-15.32v-15.7403h47.641v15.7403h-15.951v52.2579z"/></g></svg>

<svg width="201" height="201" viewBox="0 0 201 201" fill="none" xmlns="http://www.w3.org/2000/svg">
<path d="M100.497 0.504028C45.2684 0.504028 0.5 45.2722 0.5 100.501C0.5 155.729 45.2682 200.504 100.497 200.504C155.725 200.504 200.5 155.729 200.5 100.501C200.5 45.2724 155.725 0.504028 100.497 0.504028ZM100.451 12.8339C148.93 12.8339 188.229 52.1336 188.229 100.612C188.229 149.091 148.93 188.391 100.451 188.391C51.9722 188.391 12.6725 149.091 12.6725 100.612C12.6725 52.1336 51.9722 12.8339 100.451 12.8339V12.8339Z" fill="#A0AEC0"/>
<path d="M50.6591 66.3181V134.401H78.362C90.9529 134.401 100.628 126.54 100.628 114.09C100.628 103.109 92.0559 98.9201 92.0559 98.9201C92.0559 98.9201 98.6341 94.7192 98.6341 85.3769C98.6341 74.5253 90.0668 66.3181 77.4307 66.3181H50.6591L50.6591 66.3181ZM65.9796 79.6252H74.1645C79.9819 79.6252 82.52 82.6154 82.52 86.3082C82.52 90.3173 79.6461 92.847 74.5515 92.847H65.9796V79.6252ZM65.9796 106.489H74.1645C79.9819 106.489 82.52 109.479 82.52 113.172C82.52 117.181 79.6461 119.71 74.5515 119.71H65.9796V106.489Z" fill="#A0AEC0"/>
<path d="M121.175 134.189V81.9311H105.855V66.1908H153.496V81.9311H137.545V134.189H121.175Z" fill="#A0AEC0"/>
</svg>
